flaticon/transport/bus-5.svg

<svg xmlns="http://www.w3.org/2000/svg" width="32" height="32" viewBox="0 0 24 24">
    <path d="M15.414062 4.414062L12.539062 4.414062C12.019531 4.414062 11.582031 4.851562 11.582031 5.371094L11.582031 9.046875C11.582031 9.5625 12.019531 10.003906 12.539062 10.003906L15.414062 10.003906C15.933594 10.003906 16.371094 9.5625 16.371094 9.046875L16.371094 5.371094C16.371094 4.851562 15.933594 4.414062 15.414062 4.414062zM15.574219 9.046875C15.574219 9.125 15.496094 9.203125 15.414062 9.203125L12.539062 9.203125C12.460938 9.203125 12.378906 9.125 12.378906 9.046875L12.378906 5.371094C12.378906 5.292969 12.460938 5.210938 12.539062 5.210938L15.414062 5.210938C15.496094 5.210938 15.574219 5.292969 15.574219 5.371094zM9.425781 4.414062L6.550781 4.414062C6.03125 4.414062 5.589844 4.851562 5.589844 5.371094L5.589844 9.046875C5.589844 9.5625 6.03125 10.003906 6.550781 10.003906L9.425781 10.003906C9.945312 10.003906 10.382812 9.5625 10.382812 9.046875L10.382812 5.371094C10.382812 4.851562 9.945312 4.414062 9.425781 4.414062zM9.585938 9.046875C9.585938 9.125 9.503906 9.203125 9.425781 9.203125L6.550781 9.203125C6.46875 9.203125 6.390625 9.125 6.390625 9.046875L6.390625 5.371094C6.390625 5.292969 6.46875 5.210938 6.550781 5.210938L9.425781 5.210938C9.503906 5.210938 9.585938 5.292969 9.585938 5.371094zM4.792969 15.992188C4.351562 15.992188 3.992188 16.351562 3.992188 16.792969 3.992188 17.230469 4.351562 17.589844 4.792969 17.589844 5.230469 17.589844 5.589844 17.230469 5.589844 16.792969 5.589844 16.351562 5.230469 15.992188 4.792969 15.992188zM4.792969 15.992188"/>
    <path d="M 24 8.007812 C 24 7.648438 23.878906 7.328125 23.640625 7.089844 L 20.167969 3.253906 C 19.886719 2.976562 19.527344 2.816406 19.167969 2.816406 L 1.199219 2.816406 C 0.558594 2.816406 0 3.335938 0 4.011719 L 0 15.992188 C 0 16.632812 0.519531 17.191406 1.199219 17.191406 L 2.023438 17.191406 C 2.214844 18.554688 3.371094 19.585938 4.792969 19.585938 C 6.214844 19.585938 7.367188 18.554688 7.558594 17.191406 L 14.414062 17.191406 L 14.414062 21.183594 L 24 21.183594 Z M 23 7.605469 C 23.121094 7.6875 23.160156 7.847656 23.160156 7.964844 L 23.160156 9.203125 L 18.371094 9.203125 L 18.371094 5.210938 L 20.804688 5.210938 Z M 0.796875 5.210938 L 3.515625 5.210938 C 3.554688 5.210938 3.59375 5.25 3.59375 5.292969 L 3.59375 9.125 C 3.59375 9.164062 3.554688 9.203125 3.515625 9.203125 L 0.796875 9.203125 Z M 4.792969 18.789062 C 3.675781 18.789062 2.796875 17.910156 2.796875 16.792969 C 2.796875 15.675781 3.675781 14.796875 4.792969 14.796875 C 5.910156 14.796875 6.789062 15.671875 6.789062 16.792969 C 6.789062 17.910156 5.910156 18.789062 4.792969 18.789062 Z M 14.375 11.601562 L 14.375 16.394531 L 7.558594 16.394531 C 7.367188 15.027344 6.214844 13.996094 4.792969 13.996094 C 4.785156 13.996094 4.777344 13.996094 4.773438 13.996094 C 4.765625 13.996094 4.757812 13.996094 4.753906 13.996094 C 3.355469 13.996094 2.195312 15.035156 1.996094 16.394531 L 1.199219 16.394531 C 1 16.394531 0.796875 16.234375 0.796875 15.992188 L 0.796875 13.199219 L 12.378906 13.199219 C 12.617188 13.199219 12.777344 13.039062 12.777344 12.796875 C 12.777344 12.558594 12.617188 12.398438 12.378906 12.398438 L 0.796875 12.398438 L 0.796875 11.601562 L 10.78125 11.601562 C 11.023438 11.601562 11.179688 11.441406 11.179688 11.203125 C 11.179688 10.960938 11.023438 10.800781 10.78125 10.800781 L 0.796875 10.800781 L 0.796875 10.003906 L 3.515625 10.003906 C 3.992188 10.003906 4.394531 9.605469 4.394531 9.125 L 4.394531 5.292969 C 4.394531 4.8125 3.992188 4.414062 3.515625 4.414062 L 0.796875 4.414062 L 0.796875 4.011719 C 0.796875 3.8125 1 3.613281 1.199219 3.613281 L 19.167969 3.613281 C 19.289062 3.613281 19.449219 3.695312 19.566406 3.773438 L 20.140625 4.414062 L 18.25 4.414062 C 17.890625 4.414062 17.570312 4.730469 17.570312 5.089844 L 17.570312 9.324219 C 17.570312 9.683594 17.890625 10.003906 18.25 10.003906 L 23.160156 10.003906 L 23.160156 11.601562 Z M 23.203125 20.386719 L 15.214844 20.386719 L 15.214844 12.398438 L 18.769531 12.398438 L 18.769531 17.429688 L 17.050781 15.714844 L 16.492188 16.273438 L 19.167969 18.949219 L 21.84375 16.273438 L 21.285156 15.714844 L 19.566406 17.429688 L 19.566406 12.398438 L 23.203125 12.398438 Z M 23.203125 20.386719"/>
</svg>

<svg xmlns="http://www.w3.org/2000/svg" width="32" height="32" viewBox="0 0 24 24">
    <path d="M15.414 4.414H12.54a.969.969 0 0 0-.957.957v3.676c0 .515.438.957.957.957h2.875c.52 0 .957-.441.957-.957V5.37a.969.969 0 0 0-.957-.957zm.16 4.633c0 .078-.078.156-.16.156H12.54c-.078 0-.16-.078-.16-.156V5.37c0-.078.082-.16.16-.16h2.875c.082 0 .16.082.16.16zm0 0M9.426 4.414H6.55c-.52 0-.961.438-.961.957v3.676c0 .515.441.957.96.957h2.876c.52 0 .957-.441.957-.957V5.37a.969.969 0 0 0-.957-.957zm.16 4.633c0 .078-.082.156-.16.156H6.55c-.082 0-.16-.078-.16-.156V5.37c0-.078.078-.16.16-.16h2.875c.078 0 .16.082.16.16zm0 0M4.793 15.992c-.441 0-.8.36-.8.801 0 .437.359.797.8.797a.8.8 0 0 0 .797-.797c0-.441-.36-.8-.797-.8zm0 0"/>
    <path d="M24 8.008c0-.36-.121-.68-.36-.918l-3.472-3.836c-.281-.277-.64-.438-1-.438H1.199C.56 2.816 0 3.336 0 4.012v11.98c0 .64.52 1.2 1.2 1.2h.823a2.778 2.778 0 0 0 2.77 2.394 2.774 2.774 0 0 0 2.766-2.395h6.855v3.993H24zm-1-.403c.121.082.16.243.16.36v1.238h-4.789V5.211h2.434zM.797 5.211h2.719c.039 0 .078.039.078.082v3.832c0 .04-.04.078-.078.078H.796zm3.996 13.578a1.977 1.977 0 0 1-1.996-1.996c0-1.117.879-1.996 1.996-1.996s1.996.875 1.996 1.996a1.977 1.977 0 0 1-1.996 1.996zm9.582-7.187v4.793H7.559a2.774 2.774 0 0 0-2.766-2.399h-.04a2.796 2.796 0 0 0-2.757 2.399H1.2c-.199 0-.402-.16-.402-.403V13.2h11.582c.238 0 .398-.16.398-.402 0-.238-.16-.399-.398-.399H.797v-.796h9.984c.242 0 .399-.16.399-.399 0-.242-.157-.402-.399-.402H.797v-.797h2.719a.888.888 0 0 0 .879-.879V5.293a.888.888 0 0 0-.88-.879H.798v-.402c0-.2.203-.399.402-.399h17.969c.121 0 .281.082.398.16l.575.641H18.25c-.36 0-.68.316-.68.676v4.234c0 .36.32.68.68.68h4.91v1.598zm8.828 8.785h-7.988v-7.989h3.555v5.032l-1.72-1.715-.558.558 2.676 2.676 2.676-2.676-.559-.558-1.719 1.715v-5.032h3.637zm0 0"/>
</svg>
